public/images/case-studies/megalot/tech-icon2.svg

<svg width="96" height="96" viewBox="0 0 96 96" fill="none" xmlns="http://www.w3.org/2000/svg">
<path d="M86.3996 48C86.3996 60.3475 80.5706 71.3346 71.5145 78.3595C65.0179 83.4001 56.8598 86.4 47.9996 86.4C39.2194 86.4 31.1287 83.4534 24.6602 78.4942C15.5038 71.4772 9.59961 60.4275 9.59961 48C9.59961 26.7922 26.7919 9.59998 47.9996 9.59998C69.2074 9.59998 86.3996 26.7922 86.3996 48Z" fill="#F2F2F2"/>
<path d="M76 27.2L71.5872 78.3156C65.0477 83.3837 56.8358 86.3999 47.9172 86.3999C39.079 86.3999 30.935 83.4373 24.4238 78.4511L20 27.2H76Z" fill="#E64C18"/>
<path d="M48 32V85.6L66.3146 80.3729L70.4 32H48Z" fill="#F36518"/>
<path d="M30.4004 39.2L32.2198 60.4209H56.4031L55.6119 69.1868L48.0005 71.2171L40.0731 69.0297L39.874 63.5644H32.4896L33.414 74.3395L48.0005 78.3999L62.5867 74.3395L64.3944 53.256H38.9268L38.2948 46.3846L38.2946 46.3843L64.9965 46.2465L65.6004 39.2H30.4004Z" fill="white"/>
<path d="M32.0776 12V15.6281H28.7216V12H25.5996V22.4H28.7216V19.014H32.0776V22.4H35.1996V12H32.0776Z" fill="black"/>
<path d="M47.1998 12H36.7998V15.6001H40.1819V22.4H43.8177V15.6001H47.1998V12Z" fill="black"/>
<path d="M65.6767 19.0943V12H62.4004V19.0943V22.4H65.6767H70.4004V19.0943H65.6767Z" fill="black"/>
<path d="M56.7011 12L54.3999 15.7084L52.0984 12H48.7998V22.4H52.0984V17.2401L54.3999 20.9489L56.7011 17.2401V22.4H59.9998V12H56.7011Z" fill="black"/>
</svg>

<svg xmlns="http://www.w3.org/2000/svg" width="96" height="96" fill="none" xmlns:v="https://vecta.io/nano"><path d="M86.4 48c0 12.347-5.829 23.335-14.885 30.359C65.018 83.4 56.86 86.4 48 86.4c-8.78 0-16.871-2.947-23.339-7.906C15.504 71.477 9.6 60.428 9.6 48 9.6 26.792 26.792 9.6 48 9.6S86.4 26.792 86.4 48z" fill="#f2f2f2"/><path d="M76 27.2l-4.413 51.116c-6.539 5.068-14.751 8.084-23.67 8.084-8.838 0-16.982-2.963-23.493-7.949L20 27.2h56z" fill="#e64c18"/><path d="M48 32v53.6l18.315-5.227L70.4 32H48z" fill="#f36518"/><path d="M30.4 39.2l1.819 21.221h24.183l-.791 8.766-7.611 2.03-7.927-2.187-.199-5.465H32.49l.924 10.775 14.587 4.06 14.586-4.06 1.808-21.083H38.927l-.632-6.871h0l26.702-.138.604-7.046H30.4z" fill="#fff"/><path d="M32.078 12v3.628h-3.356V12H25.6v10.4h3.122v-3.386h3.356V22.4H35.2V12h-3.122zM47.2 12H36.8v3.6h3.382v6.8h3.636v-6.8H47.2V12zm18.477 7.094V12H62.4v7.094V22.4h3.276H70.4v-3.306h-4.724zM56.701 12L54.4 15.708 52.098 12H48.8v10.4h3.299v-5.16l2.302 3.709 2.301-3.709v5.16H60V12h-3.299z" fill="#000"/></svg>
